X: 4187
M: C|
L: 1/8
K: Gm
|:\
g2(bg) dgbg | f2(af) cfaf |
g2bg dgbg | agfa g2(ga) |\
(3(bag) (3(agf) gfgd | AFFA cAFA |\


